images/3233156.svg

<?xml version="1.0" encoding="UTF-8"?>
<svg xmlns="http://www.w3.org/2000/svg" xmlns:xlink="http://www.w3.org/1999/xlink" width="300pt" height="300pt" viewBox="0 0 300 300" version="1.1">
<defs>
<g>
<symbol overflow="visible" id="glyph0-0">
<path style="stroke:none;" d="M 0.453125 1.59375 L 0.453125 -6.34375 L 4.953125 -6.34375 L 4.953125 1.59375 Z M 0.953125 1.09375 L 4.453125 1.09375 L 4.453125 -5.84375 L 0.953125 -5.84375 Z M 0.953125 1.09375 "/>
</symbol>
<symbol overflow="visible" id="glyph0-1">
<path style="stroke:none;" d="M 0.890625 -6.5625 L 2.078125 -6.5625 L 4.984375 -1.078125 L 4.984375 -6.5625 L 5.84375 -6.5625 L 5.84375 0 L 4.65625 0 L 1.75 -5.484375 L 1.75 0 L 0.890625 0 Z M 0.890625 -6.5625 "/>
</symbol>
<symbol overflow="visible" id="glyph0-2">
<path style="stroke:none;" d="M 3.546875 -5.953125 C 2.898438 -5.953125 2.382812 -5.710938 2 -5.234375 C 1.625 -4.753906 1.4375 -4.101562 1.4375 -3.28125 C 1.4375 -2.445312 1.625 -1.789062 2 -1.3125 C 2.382812 -0.832031 2.898438 -0.59375 3.546875 -0.59375 C 4.191406 -0.59375 4.703125 -0.832031 5.078125 -1.3125 C 5.453125 -1.789062 5.640625 -2.445312 5.640625 -3.28125 C 5.640625 -4.101562 5.453125 -4.753906 5.078125 -5.234375 C 4.703125 -5.710938 4.191406 -5.953125 3.546875 -5.953125 Z M 3.546875 -6.6875 C 4.460938 -6.6875 5.195312 -6.375 5.75 -5.75 C 6.300781 -5.132812 6.578125 -4.3125 6.578125 -3.28125 C 6.578125 -2.238281 6.300781 -1.410156 5.75 -0.796875 C 5.195312 -0.179688 4.460938 0.125 3.546875 0.125 C 2.617188 0.125 1.878906 -0.179688 1.328125 -0.796875 C 0.773438 -1.410156 0.5 -2.238281 0.5 -3.28125 C 0.5 -4.3125 0.773438 -5.132812 1.328125 -5.75 C 1.878906 -6.375 2.617188 -6.6875 3.546875 -6.6875 Z M 3.546875 -6.6875 "/>
</symbol>
<symbol overflow="visible" id="glyph0-3">
<path style="stroke:none;" d="M 0.890625 -6.5625 L 1.765625 -6.5625 L 1.765625 -3.875 L 5 -3.875 L 5 -6.5625 L 5.890625 -6.5625 L 5.890625 0 L 5 0 L 5 -3.125 L 1.765625 -3.125 L 1.765625 0 L 0.890625 0 Z M 0.890625 -6.5625 "/>
</symbol>
</g>
</defs>
<g id="surface33437">
<rect x="0" y="0" width="300" height="300" style="fill:rgb(100%,100%,100%);fill-opacity:1;stroke:none;"/>
<path style="fill:none;stroke-width:1.2;stroke-linecap:butt;stroke-linejoin:miter;stroke:rgb(0%,0%,0%);stroke-opacity:1;stroke-miterlimit:10;" d="M 264.75 175.761719 L 246.496094 190.066406 "/>
<path style="fill:none;stroke-width:1.2;stroke-linecap:butt;stroke-linejoin:miter;stroke:rgb(0%,0%,0%);stroke-opacity:1;stroke-miterlimit:10;" d="M 246.496094 190.066406 L 224.191406 183.707031 "/>
<path style="fill:none;stroke-width:1.2;stroke-linecap:butt;stroke-linejoin:miter;stroke:rgb(0%,0%,0%);stroke-opacity:1;stroke-miterlimit:10;" d="M 242.769531 194.679688 L 224.925781 189.589844 "/>
<path style="fill:none;stroke-width:1.2;stroke-linecap:butt;stroke-linejoin:miter;stroke:rgb(100%,0%,0%);stroke-opacity:1;stroke-miterlimit:10;" d="M 247.339844 213.246094 L 246.917969 201.65625 "/>
<path style="fill:none;stroke-width:1.2;stroke-linecap:butt;stroke-linejoin:miter;stroke:rgb(0%,0%,0%);stroke-opacity:1;stroke-miterlimit:10;" d="M 246.917969 201.65625 L 246.496094 190.066406 "/>
<path style="fill:none;stroke-width:1.2;stroke-linecap:butt;stroke-linejoin:miter;stroke:rgb(0%,0%,0%);stroke-opacity:1;stroke-miterlimit:10;" d="M 224.191406 183.707031 L 211.25 202.953125 "/>
<path style="fill:none;stroke-width:1.2;stroke-linecap:butt;stroke-linejoin:miter;stroke:rgb(0%,0%,0%);stroke-opacity:1;stroke-miterlimit:10;" d="M 224.191406 183.707031 L 216.226562 161.925781 "/>
<path style="fill:none;stroke-width:1.2;stroke-linecap:butt;stroke-linejoin:miter;stroke:rgb(0%,0%,0%);stroke-opacity:1;stroke-miterlimit:10;" d="M 211.25 202.953125 L 218.402344 212.082031 "/>
<path style="fill:none;stroke-width:1.2;stroke-linecap:butt;stroke-linejoin:miter;stroke:rgb(0%,0%,100%);stroke-opacity:1;stroke-miterlimit:10;" d="M 218.402344 212.082031 L 225.558594 221.207031 "/>
<path style="fill:none;stroke-width:1.2;stroke-linecap:butt;stroke-linejoin:miter;stroke:rgb(0%,0%,0%);stroke-opacity:1;stroke-miterlimit:10;" d="M 216.976562 201.414062 L 222.699219 208.714844 "/>
<path style="fill:none;stroke-width:1.2;stroke-linecap:butt;stroke-linejoin:miter;stroke:rgb(0%,0%,100%);stroke-opacity:1;stroke-miterlimit:10;" d="M 222.699219 208.714844 L 228.421875 216.015625 "/>
<path style="fill:none;stroke-width:1.2;stroke-linecap:butt;stroke-linejoin:miter;stroke:rgb(0%,0%,0%);stroke-opacity:1;stroke-miterlimit:10;" d="M 211.25 202.953125 L 188.074219 203.796875 "/>
<path style="fill:none;stroke-width:1.2;stroke-linecap:butt;stroke-linejoin:miter;stroke:rgb(0%,0%,100%);stroke-opacity:1;stroke-miterlimit:10;" d="M 225.558594 221.207031 L 236.449219 217.226562 "/>
<path style="fill:none;stroke-width:1.2;stroke-linecap:butt;stroke-linejoin:miter;stroke:rgb(100%,0%,0%);stroke-opacity:1;stroke-miterlimit:10;" d="M 236.449219 217.226562 L 247.339844 213.246094 "/>
<path style=" stroke:none;fill-rule:nonzero;fill:rgb(100%,100%,100%);fill-opacity:1;" d="M 222.558594 215.707031 L 229.558594 215.707031 L 229.558594 226.707031 L 222.558594 226.707031 Z M 222.558594 215.707031 "/>
<g style="fill:rgb(0%,0%,100%);fill-opacity:1;">
  <use xlink:href="#glyph0-1" x="222.558594" y="224.370117"/>
</g>
<path style=" stroke:none;fill-rule:nonzero;fill:rgb(100%,100%,100%);fill-opacity:1;" d="M 243.339844 207.746094 L 251.339844 207.746094 L 251.339844 218.746094 L 243.339844 218.746094 Z M 243.339844 207.746094 "/>
<g style="fill:rgb(100%,0%,0%);fill-opacity:1;">
  <use xlink:href="#glyph0-2" x="243.339844" y="216.40918"/>
</g>
<path style="fill:none;stroke-width:1.2;stroke-linecap:butt;stroke-linejoin:miter;stroke:rgb(0%,0%,0%);stroke-opacity:1;stroke-miterlimit:10;" d="M 216.226562 161.925781 L 223.667969 153.03125 "/>
<path style="fill:none;stroke-width:1.2;stroke-linecap:butt;stroke-linejoin:miter;stroke:rgb(0%,0%,100%);stroke-opacity:1;stroke-miterlimit:10;" d="M 223.667969 153.03125 L 231.109375 144.136719 "/>
<path style="fill:none;stroke-width:1.2;stroke-linecap:butt;stroke-linejoin:miter;stroke:rgb(0%,0%,0%);stroke-opacity:1;stroke-miterlimit:10;" d="M 213.53125 156.644531 L 219.484375 149.53125 "/>
<path style="fill:none;stroke-width:1.2;stroke-linecap:butt;stroke-linejoin:miter;stroke:rgb(0%,0%,100%);stroke-opacity:1;stroke-miterlimit:10;" d="M 219.484375 149.53125 L 225.433594 142.414062 "/>
<path style="fill:none;stroke-width:1.2;stroke-linecap:butt;stroke-linejoin:miter;stroke:rgb(0%,0%,100%);stroke-opacity:1;stroke-miterlimit:10;" d="M 193.382812 157.933594 L 204.804688 159.929688 "/>
<path style="fill:none;stroke-width:1.2;stroke-linecap:butt;stroke-linejoin:miter;stroke:rgb(0%,0%,0%);stroke-opacity:1;stroke-miterlimit:10;" d="M 204.804688 159.929688 L 216.226562 161.925781 "/>
<path style="fill:none;stroke-width:1.2;stroke-linecap:butt;stroke-linejoin:miter;stroke:rgb(0%,0%,100%);stroke-opacity:1;stroke-miterlimit:10;" d="M 231.109375 144.136719 L 227.125 133.246094 "/>
<path style="fill:none;stroke-width:1.2;stroke-linecap:butt;stroke-linejoin:miter;stroke:rgb(0%,0%,0%);stroke-opacity:1;stroke-miterlimit:10;" d="M 227.125 133.246094 L 223.144531 122.355469 "/>
<path style=" stroke:none;fill-rule:nonzero;fill:rgb(100%,100%,100%);fill-opacity:1;" d="M 228.109375 138.636719 L 235.109375 138.636719 L 235.109375 149.636719 L 228.109375 149.636719 Z M 228.109375 138.636719 "/>
<g style="fill:rgb(0%,0%,100%);fill-opacity:1;">
  <use xlink:href="#glyph0-1" x="228.109375" y="147.299805"/>
</g>
<path style="fill:none;stroke-width:1.2;stroke-linecap:butt;stroke-linejoin:miter;stroke:rgb(0%,0%,0%);stroke-opacity:1;stroke-miterlimit:10;" d="M 223.144531 122.355469 L 238.027344 104.566406 "/>
<path style="fill:none;stroke-width:1.2;stroke-linecap:butt;stroke-linejoin:miter;stroke:rgb(0%,0%,0%);stroke-opacity:1;stroke-miterlimit:10;" d="M 220.445312 117.074219 L 232.351562 102.84375 "/>
<path style="fill:none;stroke-width:1.2;stroke-linecap:butt;stroke-linejoin:miter;stroke:rgb(0%,0%,0%);stroke-opacity:1;stroke-miterlimit:10;" d="M 200.296875 118.363281 L 223.144531 122.355469 "/>
<path style="fill:none;stroke-width:1.2;stroke-linecap:butt;stroke-linejoin:miter;stroke:rgb(0%,0%,0%);stroke-opacity:1;stroke-miterlimit:10;" d="M 238.027344 104.566406 L 230.0625 82.785156 "/>
<path style="fill:none;stroke-width:1.2;stroke-linecap:butt;stroke-linejoin:miter;stroke:rgb(0%,0%,0%);stroke-opacity:1;stroke-miterlimit:10;" d="M 230.0625 82.785156 L 207.214844 78.792969 "/>
<path style="fill:none;stroke-width:1.2;stroke-linecap:butt;stroke-linejoin:miter;stroke:rgb(0%,0%,0%);stroke-opacity:1;stroke-miterlimit:10;" d="M 226.835938 87.761719 L 208.558594 84.566406 "/>
<path style="fill:none;stroke-width:1.2;stroke-linecap:butt;stroke-linejoin:miter;stroke:rgb(0%,0%,0%);stroke-opacity:1;stroke-miterlimit:10;" d="M 207.214844 78.792969 L 192.332031 96.578125 "/>
<path style="fill:none;stroke-width:1.2;stroke-linecap:butt;stroke-linejoin:miter;stroke:rgb(0%,0%,0%);stroke-opacity:1;stroke-miterlimit:10;" d="M 192.332031 96.578125 L 200.296875 118.363281 "/>
<path style="fill:none;stroke-width:1.2;stroke-linecap:butt;stroke-linejoin:miter;stroke:rgb(0%,0%,0%);stroke-opacity:1;stroke-miterlimit:10;" d="M 198.253906 96.882812 L 204.628906 114.308594 "/>
<path style="fill:none;stroke-width:1.2;stroke-linecap:butt;stroke-linejoin:miter;stroke:rgb(0%,0%,0%);stroke-opacity:1;stroke-miterlimit:10;" d="M 200.296875 118.363281 L 185.417969 136.148438 "/>
<path style="fill:none;stroke-width:1.2;stroke-linecap:butt;stroke-linejoin:miter;stroke:rgb(0%,0%,0%);stroke-opacity:1;stroke-miterlimit:10;" d="M 185.417969 136.148438 L 189.398438 147.042969 "/>
<path style="fill:none;stroke-width:1.2;stroke-linecap:butt;stroke-linejoin:miter;stroke:rgb(0%,0%,100%);stroke-opacity:1;stroke-miterlimit:10;" d="M 189.398438 147.042969 L 193.382812 157.933594 "/>
<path style="fill:none;stroke-width:1.2;stroke-linecap:butt;stroke-linejoin:miter;stroke:rgb(0%,0%,0%);stroke-opacity:1;stroke-miterlimit:10;" d="M 191.339844 136.453125 L 194.523438 145.167969 "/>
<path style="fill:none;stroke-width:1.2;stroke-linecap:butt;stroke-linejoin:miter;stroke:rgb(0%,0%,100%);stroke-opacity:1;stroke-miterlimit:10;" d="M 194.523438 145.167969 L 197.710938 153.878906 "/>
<path style="fill:none;stroke-width:1.2;stroke-linecap:butt;stroke-linejoin:miter;stroke:rgb(0%,0%,0%);stroke-opacity:1;stroke-miterlimit:10;" d="M 185.417969 136.148438 L 173.992188 134.152344 "/>
<path style="fill:none;stroke-width:1.2;stroke-linecap:butt;stroke-linejoin:miter;stroke:rgb(0%,0%,100%);stroke-opacity:1;stroke-miterlimit:10;" d="M 173.992188 134.152344 L 162.570312 132.15625 "/>
<path style=" stroke:none;fill-rule:nonzero;fill:rgb(100%,100%,100%);fill-opacity:1;" d="M 190.382812 152.433594 L 197.382812 152.433594 L 197.382812 163.433594 L 190.382812 163.433594 Z M 190.382812 152.433594 "/>
<g style="fill:rgb(0%,0%,100%);fill-opacity:1;">
  <use xlink:href="#glyph0-1" x="190.382812" y="161.09668"/>
</g>
<path style="fill:none;stroke-width:1.2;stroke-linecap:butt;stroke-linejoin:miter;stroke:rgb(0%,0%,100%);stroke-opacity:1;stroke-miterlimit:10;" d="M 162.570312 132.15625 L 155.128906 141.050781 "/>
<path style="fill:none;stroke-width:1.2;stroke-linecap:butt;stroke-linejoin:miter;stroke:rgb(0%,0%,0%);stroke-opacity:1;stroke-miterlimit:10;" d="M 155.128906 141.050781 L 147.6875 149.945312 "/>
<path style=" stroke:none;fill-rule:nonzero;fill:rgb(100%,100%,100%);fill-opacity:1;" d="M 155.570312 126.65625 L 169.570312 126.65625 L 169.570312 137.65625 L 155.570312 137.65625 Z M 155.570312 126.65625 "/>
<g style="fill:rgb(0%,0%,100%);fill-opacity:1;">
  <use xlink:href="#glyph0-1" x="155.570312" y="135.319336"/>
  <use xlink:href="#glyph0-3" x="162.547852" y="135.319336"/>
</g>
<path style="fill:none;stroke-width:1.2;stroke-linecap:butt;stroke-linejoin:miter;stroke:rgb(0%,0%,0%);stroke-opacity:1;stroke-miterlimit:10;" d="M 147.6875 149.945312 L 124.84375 145.953125 "/>
<path style="fill:none;stroke-width:1.2;stroke-linecap:butt;stroke-linejoin:miter;stroke:rgb(0%,0%,0%);stroke-opacity:1;stroke-miterlimit:10;" d="M 124.84375 145.953125 L 109.960938 163.738281 "/>
<path style="fill:none;stroke-width:1.2;stroke-linecap:butt;stroke-linejoin:miter;stroke:rgb(0%,0%,0%);stroke-opacity:1;stroke-miterlimit:10;" d="M 109.960938 163.738281 L 115.605469 186.234375 "/>
<path style="fill:none;stroke-width:1.2;stroke-linecap:butt;stroke-linejoin:miter;stroke:rgb(0%,0%,0%);stroke-opacity:1;stroke-miterlimit:10;" d="M 105.234375 167.316406 L 109.75 185.3125 "/>
<path style="fill:none;stroke-width:1.2;stroke-linecap:butt;stroke-linejoin:miter;stroke:rgb(0%,0%,0%);stroke-opacity:1;stroke-miterlimit:10;" d="M 86.824219 162.15625 L 109.960938 163.738281 "/>
<path style="fill:none;stroke-width:1.2;stroke-linecap:butt;stroke-linejoin:miter;stroke:rgb(0%,0%,0%);stroke-opacity:1;stroke-miterlimit:10;" d="M 115.605469 186.234375 L 105.78125 192.394531 "/>
<path style="fill:none;stroke-width:1.2;stroke-linecap:butt;stroke-linejoin:miter;stroke:rgb(0%,0%,100%);stroke-opacity:1;stroke-miterlimit:10;" d="M 105.78125 192.394531 L 95.957031 198.554688 "/>
<path style="fill:none;stroke-width:1.2;stroke-linecap:butt;stroke-linejoin:miter;stroke:rgb(0%,0%,100%);stroke-opacity:1;stroke-miterlimit:10;" d="M 95.957031 198.554688 L 87.0625 191.113281 "/>
<path style="fill:none;stroke-width:1.2;stroke-linecap:butt;stroke-linejoin:miter;stroke:rgb(0%,0%,0%);stroke-opacity:1;stroke-miterlimit:10;" d="M 87.0625 191.113281 L 78.167969 183.671875 "/>
<path style=" stroke:none;fill-rule:nonzero;fill:rgb(100%,100%,100%);fill-opacity:1;" d="M 88.957031 193.054688 L 102.957031 193.054688 L 102.957031 204.054688 L 88.957031 204.054688 Z M 88.957031 193.054688 "/>
<g style="fill:rgb(0%,0%,100%);fill-opacity:1;">
  <use xlink:href="#glyph0-1" x="88.957031" y="201.717773"/>
  <use xlink:href="#glyph0-3" x="95.93457" y="201.717773"/>
</g>
<path style="fill:none;stroke-width:1.2;stroke-linecap:butt;stroke-linejoin:miter;stroke:rgb(0%,0%,0%);stroke-opacity:1;stroke-miterlimit:10;" d="M 78.167969 183.671875 L 86.824219 162.15625 "/>
<path style="fill:none;stroke-width:1.2;stroke-linecap:butt;stroke-linejoin:miter;stroke:rgb(0%,0%,0%);stroke-opacity:1;stroke-miterlimit:10;" d="M 73.96875 179.484375 L 80.894531 162.269531 "/>
<path style="fill:none;stroke-width:1.2;stroke-linecap:butt;stroke-linejoin:miter;stroke:rgb(0%,0%,0%);stroke-opacity:1;stroke-miterlimit:10;" d="M 55.207031 186.933594 L 78.167969 183.671875 "/>
<path style="fill:none;stroke-width:1.2;stroke-linecap:butt;stroke-linejoin:miter;stroke:rgb(0%,0%,0%);stroke-opacity:1;stroke-miterlimit:10;" d="M 86.824219 162.15625 L 72.519531 143.902344 "/>
<path style="fill:none;stroke-width:1.2;stroke-linecap:butt;stroke-linejoin:miter;stroke:rgb(0%,0%,0%);stroke-opacity:1;stroke-miterlimit:10;" d="M 72.519531 143.902344 L 49.554688 147.164062 "/>
<path style="fill:none;stroke-width:1.2;stroke-linecap:butt;stroke-linejoin:miter;stroke:rgb(0%,0%,0%);stroke-opacity:1;stroke-miterlimit:10;" d="M 70.988281 149.628906 L 52.621094 152.238281 "/>
<path style="fill:none;stroke-width:1.2;stroke-linecap:butt;stroke-linejoin:miter;stroke:rgb(0%,0%,0%);stroke-opacity:1;stroke-miterlimit:10;" d="M 49.554688 147.164062 L 40.898438 168.679688 "/>
<path style="fill:none;stroke-width:1.2;stroke-linecap:butt;stroke-linejoin:miter;stroke:rgb(0%,0%,0%);stroke-opacity:1;stroke-miterlimit:10;" d="M 49.554688 147.164062 L 42.402344 138.035156 "/>
<path style="fill:none;stroke-width:1.2;stroke-linecap:butt;stroke-linejoin:miter;stroke:rgb(100%,0%,0%);stroke-opacity:1;stroke-miterlimit:10;" d="M 42.402344 138.035156 L 35.25 128.910156 "/>
<path style="fill:none;stroke-width:1.2;stroke-linecap:butt;stroke-linejoin:miter;stroke:rgb(0%,0%,0%);stroke-opacity:1;stroke-miterlimit:10;" d="M 40.898438 168.679688 L 55.207031 186.933594 "/>
<path style="fill:none;stroke-width:1.2;stroke-linecap:butt;stroke-linejoin:miter;stroke:rgb(0%,0%,0%);stroke-opacity:1;stroke-miterlimit:10;" d="M 46.625 167.140625 L 58.070312 181.742188 "/>
<path style="fill:none;stroke-width:1.2;stroke-linecap:butt;stroke-linejoin:miter;stroke:rgb(100%,0%,0%);stroke-opacity:1;stroke-miterlimit:10;" d="M 35.25 128.910156 L 39.578125 118.148438 "/>
<path style="fill:none;stroke-width:1.2;stroke-linecap:butt;stroke-linejoin:miter;stroke:rgb(0%,0%,0%);stroke-opacity:1;stroke-miterlimit:10;" d="M 39.578125 118.148438 L 43.90625 107.390625 "/>
<path style=" stroke:none;fill-rule:nonzero;fill:rgb(100%,100%,100%);fill-opacity:1;" d="M 31.25 123.410156 L 39.25 123.410156 L 39.25 134.410156 L 31.25 134.410156 Z M 31.25 123.410156 "/>
<g style="fill:rgb(100%,0%,0%);fill-opacity:1;">
  <use xlink:href="#glyph0-2" x="31.25" y="132.073242"/>
</g>
</g>
</svg>

<svg xmlns="http://www.w3.org/2000/svg" xmlns:xlink="http://www.w3.org/1999/xlink" width="300pt" height="300pt" viewBox="0 0 300 300"><defs><symbol overflow="visible"><path d="M.453 1.594v-7.938h4.5v7.938zm.5-.5h3.5v-6.938h-3.5zm0 0"/></symbol><symbol overflow="visible" id="a"><path d="M.89-6.563H2.08l2.906 5.485v-5.484h.86V0H4.656L1.75-5.484V0H.89zm0 0"/></symbol><symbol overflow="visible" id="b"><path d="M3.547-5.953c-.65 0-1.164.242-1.547.72-.375.48-.563 1.13-.563 1.952 0 .835.188 1.49.563 1.967.383.48.898.72 1.547.72.644 0 1.156-.24 1.53-.72.376-.476.564-1.132.564-1.968 0-.822-.187-1.474-.562-1.954-.375-.477-.887-.72-1.53-.72zm0-.734c.914 0 1.648.312 2.203.937.55.617.828 1.438.828 2.47 0 1.042-.277 1.87-.828 2.483-.555.617-1.29.922-2.203.922-.93 0-1.668-.305-2.22-.922C.774-1.41.5-2.237.5-3.28c0-1.033.273-1.853.828-2.47.55-.625 1.29-.938 2.22-.938zm0 0"/></symbol><symbol overflow="visible" id="c"><path d="M.89-6.563h.876v2.688H5v-2.688h.89V0H5v-3.125H1.766V0H.89zm0 0"/></symbol></defs><g><path fill="#fff" d="M0 0h300v300H0z"/><path d="M264.75 175.762l-18.254 14.304M246.496 190.066l-22.305-6.36M242.77 194.68l-17.844-5.09" stroke-width="1.2" stroke="#000" stroke-miterlimit="10" fill="none"/><path d="M247.34 213.246l-.422-11.59" stroke-width="1.2" stroke="#f00" stroke-miterlimit="10" fill="none"/><path d="M246.918 201.656l-.422-11.59M224.19 183.707l-12.94 19.246M224.19 183.707l-7.963-21.78M211.25 202.953l7.152 9.13" stroke-width="1.2" stroke="#000" stroke-miterlimit="10" fill="none"/><path d="M218.402 212.082l7.157 9.125" stroke-width="1.2" stroke="#00f" stroke-miterlimit="10" fill="none"/><path d="M216.977 201.414l5.722 7.3" stroke-width="1.2" stroke="#000" stroke-miterlimit="10" fill="none"/><path d="M222.7 208.715l5.722 7.3" stroke-width="1.2" stroke="#00f" stroke-miterlimit="10" fill="none"/><path d="M211.25 202.953l-23.176.844" stroke-width="1.2" stroke="#000" stroke-miterlimit="10" fill="none"/><path d="M225.56 221.207l10.89-3.98" stroke-width="1.2" stroke="#00f" stroke-miterlimit="10" fill="none"/><path d="M236.45 217.227l10.89-3.98" stroke-width="1.2" stroke="#f00" stroke-miterlimit="10" fill="none"/><path d="M222.56 215.707h7v11h-7zm0 0" fill="#fff"/><use xlink:href="#a" x="222.559" y="224.37" fill="#00f"/><path d="M243.34 207.746h8v11h-8zm0 0" fill="#fff"/><use xlink:href="#b" x="243.34" y="216.409" fill="#f00"/><path d="M216.227 161.926l7.44-8.895" stroke-width="1.2" stroke="#000" stroke-miterlimit="10" fill="none"/><path d="M223.668 153.03l7.44-8.893" stroke-width="1.2" stroke="#00f" stroke-miterlimit="10" fill="none"/><path d="M213.53 156.645l5.954-7.114" stroke-width="1.2" stroke="#000" stroke-miterlimit="10" fill="none"/><path d="M219.484 149.53l5.95-7.116M193.383 157.934l11.422 1.996" stroke-width="1.2" stroke="#00f" stroke-miterlimit="10" fill="none"/><path d="M204.805 159.93l11.422 1.996" stroke-width="1.2" stroke="#000" stroke-miterlimit="10" fill="none"/><path d="M231.11 144.137l-3.985-10.89" stroke-width="1.2" stroke="#00f" stroke-miterlimit="10" fill="none"/><path d="M227.125 133.246l-3.98-10.89" stroke-width="1.2" stroke="#000" stroke-miterlimit="10" fill="none"/><path d="M228.11 138.637h7v11h-7zm0 0" fill="#fff"/><use xlink:href="#a" x="228.109" y="147.3" fill="#00f"/><path d="M223.145 122.355l14.882-17.79M220.445 117.074l11.907-14.23M200.297 118.363l22.848 3.992M238.027 104.566l-7.964-21.78M230.063 82.785l-22.848-3.992M226.836 87.762l-18.277-3.196M207.215 78.793l-14.883 17.785M192.332 96.578l7.965 21.785M198.254 96.883l6.375 17.426M200.297 118.363l-14.88 17.785M185.418 136.148l3.98 10.895" stroke-width="1.2" stroke="#000" stroke-miterlimit="10" fill="none"/><path d="M189.398 147.043l3.985 10.89" stroke-width="1.2" stroke="#00f" stroke-miterlimit="10" fill="none"/><path d="M191.34 136.453l3.183 8.715" stroke-width="1.2" stroke="#000" stroke-miterlimit="10" fill="none"/><path d="M194.523 145.168l3.188 8.71" stroke-width="1.2" stroke="#00f" stroke-miterlimit="10" fill="none"/><path d="M185.418 136.148l-11.426-1.996" stroke-width="1.2" stroke="#000" stroke-miterlimit="10" fill="none"/><path d="M173.992 134.152l-11.422-1.996" stroke-width="1.2" stroke="#00f" stroke-miterlimit="10" fill="none"/><path d="M190.383 152.434h7v11h-7zm0 0" fill="#fff"/><use xlink:href="#a" x="190.383" y="161.097" fill="#00f"/><path d="M162.57 132.156l-7.44 8.895" stroke-width="1.2" stroke="#00f" stroke-miterlimit="10" fill="none"/><path d="M155.13 141.05l-7.442 8.895" stroke-width="1.2" stroke="#000" stroke-miterlimit="10" fill="none"/><path d="M155.57 126.656h14v11h-14zm0 0" fill="#fff"/><g fill="#00f"><use xlink:href="#a" x="155.57" y="135.319"/><use xlink:href="#c" x="162.548" y="135.319"/></g><path d="M147.688 149.945l-22.844-3.992M124.844 145.953l-14.883 17.785M109.96 163.738l5.645 22.496M105.234 167.316l4.516 17.996M86.824 162.156l23.137 1.582M115.605 186.234l-9.824 6.16" stroke-width="1.2" stroke="#000" stroke-miterlimit="10" fill="none"/><path d="M105.78 192.395l-9.823 6.16M95.957 198.555l-8.894-7.442" stroke-width="1.2" stroke="#00f" stroke-miterlimit="10" fill="none"/><path d="M87.063 191.113l-8.895-7.44" stroke-width="1.2" stroke="#000" stroke-miterlimit="10" fill="none"/><path d="M88.957 193.055h14v11h-14zm0 0" fill="#fff"/><g fill="#00f"><use xlink:href="#a" x="88.957" y="201.718"/><use xlink:href="#c" x="95.935" y="201.718"/></g><path d="M78.168 183.672l8.656-21.516M73.97 179.484l6.925-17.214M55.207 186.934l22.96-3.262M86.824 162.156L72.52 143.902M72.52 143.902l-22.965 3.262M70.988 149.63l-18.367 2.608M49.555 147.164l-8.657 21.516M49.555 147.164l-7.153-9.13" stroke-width="1.2" stroke="#000" stroke-miterlimit="10" fill="none"/><path d="M42.402 138.035l-7.152-9.125" stroke-width="1.2" stroke="#f00" stroke-miterlimit="10" fill="none"/><path d="M40.898 168.68l14.31 18.254M46.625 167.14l11.445 14.602" stroke-width="1.2" stroke="#000" stroke-miterlimit="10" fill="none"/><path d="M35.25 128.91l4.328-10.762" stroke-width="1.2" stroke="#f00" stroke-miterlimit="10" fill="none"/><path d="M39.578 118.148l4.328-10.757" stroke-width="1.2" stroke="#000" stroke-miterlimit="10" fill="none"/><path d="M31.25 123.41h8v11h-8zm0 0" fill="#fff"/><use xlink:href="#b" x="31.25" y="132.073" fill="#f00"/></g></svg>
